lg/rancher-icon.svg

<svg viewBox="0 0 256 121" version="1.1" xmlns="http://www.w3.org/2000/svg" preserveAspectRatio="xMidYMid" height="1em" width="1em">
  <g>
    <path d="M255.866635,26.3656212 L253.050889,9.72712238 C252.788669,8.15380092 252.427773,6.66819076 252.00671,5.3537246 L251.791343,4.71113978 C250.801231,1.88716346 249.539011,2.13162821e-14 248.443305,2.13162821e-14 C247.398562,2.13162821e-14 246.454742,1.76615758 245.897013,4.4112866 L245.779544,5.01320113 C245.761064,5.11581146 245.743142,5.21953737 245.725794,5.32433379 L245.628695,5.96559767 C245.613697,6.07449579 245.599301,6.18437427 245.585521,6.29518802 L245.510357,6.97093331 C245.487846,7.19968246 245.467917,7.43181215 245.450686,7.66696177 L245.407203,8.38110987 C245.383765,8.8627677 245.371582,9.35506293 245.371582,9.85511083 L245.371582,14.2067182 C245.371582,19.5822332 240.891986,24.061829 235.516471,24.061829 L230.268944,24.061829 L230.268944,24.061829 L230.268944,36.0927436 L247.547385,36.0927436 C253.050889,36.0927436 256.762554,31.7411362 255.866635,26.3656212 Z M216.57418,12.2868914 L162.051099,12.2868914 C161.667134,12.2868914 161.411157,12.2868914 161.15518,12.4148799 L161.15291,9.48157361 L161.15291,9.48157361 L161.135013,8.74430268 C161.130575,8.62260362 161.125419,8.50152433 161.119559,8.38110987 L161.076076,7.66696177 C161.041614,7.19666252 160.99636,6.73844303 160.941241,6.29518802 L160.85128,5.64188945 C160.818904,5.42810477 160.784178,5.2184218 160.747218,5.01320113 L160.629749,4.4112866 C160.07202,1.76615758 159.1282,2.13162821e-14 158.083457,2.13162821e-14 C156.622516,2.13162821e-14 154.865549,3.35495727 153.852256,7.81218887 L153.690438,8.56488079 C153.638913,8.81892267 153.589861,9.07598036 153.543461,9.33566762 L150.660127,26.3656212 C149.764208,31.7411362 153.475873,36.0927436 158.851388,36.0927436 L175.23391,36.0927436 C176.89776,36.0927436 178.56161,35.8367667 179.841494,35.3248129 C179.32954,38.1405588 176.89776,40.1883741 173.954025,40.1883741 L150.916104,40.1883741 C147.204439,40.1883741 144.388693,36.8606743 145.028635,33.1490092 L147.332427,19.1982679 C147.97237,15.4866027 145.156624,12.158903 141.444958,12.158903 L27.2792589,12.158903 C24.8474783,12.158903 22.7996631,13.566776 21.7757555,15.7425796 L0.273695468,48.6356119 C-0.110269889,49.1475657 -0.110269889,49.9154964 0.40168392,50.4274502 L4.62530285,55.4189999 C5.13725666,56.0589421 6.03317583,56.1869306 6.67311809,55.6749768 L21.2638017,44.1560161 L21.2638017,114.293688 C21.2638017,117.621388 23.9515592,120.309145 27.2792589,120.309145 L59.7883258,120.309145 C63.1160256,120.309145 65.8037831,117.621388 65.8037831,114.293688 L65.8037831,89.975882 C65.8037831,86.6481823 68.4915406,83.9604248 71.8192404,83.9604248 L152.835931,83.9604248 C156.16363,83.9604248 158.851388,86.6481823 158.851388,89.975882 L158.851388,114.293688 C158.851388,117.621388 161.539145,120.309145 164.866845,120.309145 L197.375912,120.309145 C200.703612,120.309145 203.391369,117.621388 203.391369,114.293688 L203.391369,87.8000783 L186.112928,87.8000783 C180.737413,87.8000783 176.257818,83.3204825 176.257818,77.9449675 L176.257818,61.1784802 C176.257818,57.9787689 177.793679,55.163023 180.22546,53.3711846 L180.22546,73.4653717 C180.22546,78.8408867 184.705055,83.3204825 190.08057,83.3204825 L216.57418,83.3204825 C221.949695,83.3204825 226.429291,78.8408867 226.429291,73.4653717 L226.429291,22.2699907 C226.429291,16.7664873 221.949695,12.2868914 216.57418,12.2868914 Z" fill="#2453FF"/>
  </g>
</svg>

<svg viewBox="0 0 256 121" xmlns="http://www.w3.org/2000/svg" preserveAspectRatio="xMidYMid" height="1em" width="1em">
  <path d="M255.867 26.366 253.05 9.727a31.4 31.4 0 0 0-1.044-4.373l-.216-.643C250.801 1.887 249.54 0 248.443 0c-1.044 0-1.988 1.766-2.546 4.411l-.117.602c-.019.103-.037.207-.054.311l-.097.642c-.015.108-.03.218-.043.33l-.076.675c-.022.229-.042.46-.06.696l-.043.714c-.023.482-.035.974-.035 1.474v4.352c0 5.375-4.48 9.855-9.856 9.855h-5.247v12.03h17.278c5.504 0 9.216-4.35 8.32-9.726Zm-39.293-14.08h-54.523c-.384 0-.64 0-.896.129l-.002-2.933-.018-.738-.015-.363-.044-.714a26.91 26.91 0 0 0-.135-1.372l-.09-.653a22.86 22.86 0 0 0-.104-.629l-.117-.602C160.072 1.766 159.128 0 158.083 0c-1.46 0-3.217 3.355-4.23 7.812l-.163.753c-.051.254-.1.511-.147.77l-2.883 17.03c-.896 5.376 2.816 9.728 8.191 9.728h16.383c1.664 0 3.328-.256 4.607-.768-.511 2.816-2.943 4.863-5.887 4.863h-23.038c-3.712 0-6.527-3.327-5.887-7.039l2.303-13.95c.64-3.712-2.175-7.04-5.887-7.04H27.279c-2.432 0-4.48 1.408-5.503 3.584L.274 48.636a1.37 1.37 0 0 0 .128 1.791l4.223 4.992c.512.64 1.408.768 2.048.256l14.59-11.519v70.138a6.008 6.008 0 0 0 6.016 6.015h32.51a6.008 6.008 0 0 0 6.015-6.015V89.976a6.008 6.008 0 0 1 6.015-6.016h81.017a6.008 6.008 0 0 1 6.015 6.016v24.318a6.008 6.008 0 0 0 6.016 6.015h32.509a6.008 6.008 0 0 0 6.015-6.015V87.8h-17.278c-5.376 0-9.855-4.48-9.855-9.855V61.178c0-3.2 1.536-6.015 3.967-7.807v20.094c0 5.376 4.48 9.855 9.856 9.855h26.493c5.376 0 9.855-4.48 9.855-9.855V22.27c0-5.504-4.48-9.983-9.855-9.983Z" fill="#2453FF"/>
</svg>
